src/pages/cohortRepo/assets/website.svg

<?xml version="1.0" encoding="UTF-8"?>
<svg width="20px" height="20px" viewBox="0 0 20 20" version="1.1" xmlns="http://www.w3.org/2000/svg" xmlns:xlink="http://www.w3.org/1999/xlink">
    <!-- Generator: Sketch 54.1 (76490) - https://sketchapp.com -->
    <title>icons/website</title>
    <desc>Created with Sketch.</desc>
    <g id="icons/website" stroke="none" stroke-width="1" fill="none" fill-rule="evenodd">
        <polygon id="Path" fill="#3CB371" points="11.198 8.902 11.198 18.962 13.788 16.374 15.668 20 17.034 19.292 15.224 15.804 18.718 15.804"></polygon>
        <path d="M18.938,10.752 C18.956,10.62 18.978,10.488 18.992,10.352 C19.022,10.05 19.04,9.752 19.04,9.436 C19.04,9.12 19.024,8.836 18.996,8.544 C18.982,8.388 18.956,8.236 18.934,8.084 C18.918,7.976 18.908,7.866 18.89,7.76 L18.89,7.76 C18.1874247,3.89071405 15.159286,0.862575303 11.29,0.16 L11.29,0.16 C11.154,0.13 11.028,0.118 10.904,0.1 C10.78,0.082 10.634,0.058 10.504,0.044 C10.2,0.016 9.902,0 9.6,0 C9.298,0 9,0.016 8.704,0.044 C8.566,0.058 8.432,0.08 8.304,0.1 C8.176,0.12 8.052,0.128 7.93,0.15 L7.93,0.15 C4.06071405,0.852575303 1.0325753,3.88071405 0.33,7.75 L0.33,7.75 C0.31,7.864 0.3,7.982 0.282,8.098 C0.264,8.214 0.218,8.4 0.2,8.546 C0.172,8.84 0.156,9.146 0.156,9.44 C0.156,9.734 0.172,10.04 0.2,10.332 C0.214,10.486 0.24,10.634 0.262,10.786 C0.278,10.896 0.288,11.008 0.308,11.118 L0.308,11.118 C1.0105753,14.987286 4.03871405,18.0154247 7.908,18.718 L7.908,18.718 C8.024,18.738 8.142,18.75 8.258,18.766 C8.374,18.782 8.546,18.81 8.694,18.824 C8.988,18.852 9.294,18.868 9.586,18.868 L9.614,18.868 L9.614,16.668 L9.6,16.668 C9.18549236,16.6655314 8.77196629,16.6273906 8.364,16.554 C7.98695631,15.3402663 7.73104077,14.0921755 7.6,12.828 C8.25,12.868 8.92,12.892 9.6,12.892 L9.628,12.892 L9.628,11.634 L9.6,11.634 C8.846,11.634 8.138,11.608 7.476,11.564 C7.43,10.902 7.4,10.2 7.4,9.44 C7.4,8.68 7.426,7.978 7.47,7.314 C8.134,7.27 8.842,7.244 9.596,7.244 C10.35,7.244 11.056,7.27 11.718,7.314 C11.718,7.352 11.718,7.388 11.718,7.428 C11.9142943,7.49719425 12.0945725,7.60536118 12.248,7.746 L13.022,8.456 C13.012,8.108 12.992,7.77 12.97,7.432 C14.2450267,7.56280167 15.5038867,7.82006738 16.728,8.2 C16.8003894,8.60806865 16.8378584,9.02156585 16.84,9.436 C16.8395759,9.84967474 16.8034418,10.2625407 16.732,10.67 C16.434,10.768 16.118,10.87 15.76,10.954 L16.5,11.632 L16.5,11.632 L18.244,13.232 C18.5379978,12.5560365 18.7514645,11.8478374 18.88,11.122 L18.88,11.122 C18.91,11 18.922,10.872 18.938,10.752 Z M6.938,2.716 C6.64646924,3.84671283 6.44187221,4.99807258 6.326,6.16 C5.1647792,6.27518454 4.01408252,6.47911393 2.884,6.77 C3.62150544,4.92221557 5.08367597,3.45715394 6.93,2.716 L6.938,2.716 Z M6.938,16.166 C5.08509607,15.4282151 3.61652306,13.9618113 2.876,12.11 C4.00602291,12.4015911 5.15672262,12.6061897 6.318,12.722 C6.43345533,13.8831834 6.63738108,15.0338595 6.928,16.164 L6.938,16.166 Z M6.212,11.448 C4.94294551,11.315592 3.69014898,11.0576633 2.472,10.678 C2.32072138,9.86027105 2.32072138,9.02172895 2.472,8.204 C3.69014898,7.82433669 4.94294551,7.56640799 6.212,7.434 C6.172,8.084 6.148,8.754 6.148,9.434 C6.148,10.114 6.172,10.8 6.212,11.448 Z M9.6,5.988 C8.914,5.988 8.244,6.01 7.6,6.05 C7.73231688,4.78093142 7.99024742,3.52812594 8.37,2.31 C9.18704187,2.15856027 10.0249581,2.15856027 10.842,2.31 C11.217674,3.52922728 11.4715818,4.78268723 11.6,6.052 C10.956,6.01 10.286,5.988 9.6,5.988 Z M12.878,6.158 C12.7626377,4.99614508 12.5587114,3.84479716 12.268,2.714 C14.118633,3.45314721 15.5848528,4.91936696 16.324,6.77 C15.1926739,6.47817724 14.0406269,6.27357691 12.878,6.158 L12.878,6.158 Z" id="Shape" fill="#3C50AC"></path>
    </g>
</svg>

<svg xmlns="http://www.w3.org/2000/svg" width="20" height="20" viewBox="0 0 20 20">
    <g fill="none" fill-rule="evenodd">
        <g>
            <g>
                <g>
                    <g>
                        <g>
                            <g>
                                <g>
                                    <path fill="#C71D00" d="M11.198 8.902L11.198 18.962 13.788 16.374 15.668 20 17.034 19.292 15.224 15.804 18.718 15.804z" transform="translate(-1384 -656) translate(-1) translate(1 69) translate(265 244) translate(1 43.131) translate(1118 44.869) translate(0 255)"/>
                                    <path fill="#0056B9" d="M18.938 10.752c.018-.132.04-.264.054-.4.03-.302.048-.6.048-.916 0-.316-.016-.6-.044-.892-.014-.156-.04-.308-.062-.46-.016-.108-.026-.218-.044-.324-.703-3.87-3.73-6.897-7.6-7.6-.136-.03-.262-.042-.386-.06-.124-.018-.27-.042-.4-.056C10.2.016 9.902 0 9.6 0c-.302 0-.6.016-.896.044-.138.014-.272.036-.4.056-.128.02-.252.028-.374.05-3.87.703-6.897 3.73-7.6 7.6-.02.114-.03.232-.048.348-.018.116-.064.302-.082.448-.028.294-.044.6-.044.894 0 .294.016.6.044.892.014.154.04.302.062.454.016.11.026.222.046.332.703 3.87 3.73 6.897 7.6 7.6.116.02.234.032.35.048.116.016.288.044.436.058.294.028.6.044.892.044h.028v-2.2H9.6c-.415-.002-.828-.04-1.236-.114-.377-1.214-.633-2.462-.764-3.726.65.04 1.32.064 2 .064h.028v-1.258H9.6c-.754 0-1.462-.026-2.124-.07C7.43 10.902 7.4 10.2 7.4 9.44s.026-1.462.07-2.126c.664-.044 1.372-.07 2.126-.07.754 0 1.46.026 2.122.07v.114c.196.07.377.177.53.318l.774.71c-.01-.348-.03-.686-.052-1.024 1.275.13 2.534.388 3.758.768.072.408.11.822.112 1.236 0 .414-.037.827-.108 1.234-.298.098-.614.2-.972.284l.74.678 1.744 1.6c.294-.676.507-1.384.636-2.11.03-.122.042-.25.058-.37zm-12-8.036c-.292 1.13-.496 2.282-.612 3.444-1.161.115-2.312.32-3.442.61.738-1.848 2.2-3.313 4.046-4.054h.008zm0 13.45c-1.853-.738-3.321-2.204-4.062-4.056 1.13.292 2.28.496 3.442.612.115 1.161.32 2.312.61 3.442l.01.002zm-.726-4.718c-1.27-.132-2.522-.39-3.74-.77-.151-.818-.151-1.656 0-2.474 1.218-.38 2.47-.638 3.74-.77-.04.65-.064 1.32-.064 2 0 .68.024 1.366.064 2.014zM9.6 5.988c-.686 0-1.356.022-2 .062.132-1.27.39-2.522.77-3.74.817-.151 1.655-.151 2.472 0 .376 1.22.63 2.473.758 3.742-.644-.042-1.314-.064-2-.064zm3.278.17c-.115-1.162-.32-2.313-.61-3.444 1.85.74 3.317 2.205 4.056 4.056-1.131-.292-2.283-.496-3.446-.612z" transform="translate(-1384 -656) translate(-1) translate(1 69) translate(265 244) translate(1 43.131) translate(1118 44.869) translate(0 255)"/>
                                </g>
                            </g>
                        </g>
                    </g>
                </g>
            </g>
        </g>
    </g>
</svg>
